X:1
T:Title
%%score { ( 1 3 ) | 2 }
L:1/8
Q:1/4=100
M:6/8
K:Bb
V:1 treble nm="Grand Piano"
V:3 treble 
V:2 bass 
V:1
 [DF][DG][DA] [DB][DA][DG] | [EA]2 [EA] .[EA]3 | ABc GAG | [_D=EG]3 .[=DF]3 | %4
w: Ira~B.~Wilson * * * * *||||
 [DF][DG][DA] [DB][DA][DG] | A2 A .A3 | CFA c2 [=Ec] | c3 ._d3 | [Fd][Ec][DB] [DF]2 B | A6 | %10
w: ||||||
 AGF c2 G | G3 z3 | BBB [B_d]2 B | BBB [Ac]2 B |[M:7/8] FB[Bd] [Bf]3 [EA] |[M:3/4] [DB]6 |] %16
w: ||||||
V:2
 [B,,B,][B,,B,][B,,B,] [B,,F,][B,,F,][B,,F,] | [C,F,]2 [C,F,] .[C,F,]3 | %2
 [F,E][F,G,D][F,A,E] [F,A,E][F,CE][F,CE] | B,,3 .B,,3 | %4
 [B,,B,][B,,B,][B,,B,] [B,,F,][B,,F,][B,,F,] | [C,F,C]2 [C,F,C] .[C,F,C]3 | C,F,A, C2 [C,B,] | %7
 [F,A,F]6 | [B,,B,][B,,F,][B,,F,] .[B,,B,]3 | z2 [F,C] .[F,C]3 | [F,CE][F,B,E][F,A,E] .[F,A,E]3 | %11
 z2 [B,,B,] .[B,,B,]3 | B,B,B, [^F,B,]2 B, | B,B,B, [F,B,]2 B, |[M:7/8] F,B,[G,B,] [F,D]3 [F,C] | %15
[M:3/4] [B,,B,]6 |] %16
V:3
 x6 | x6 | x6 | x6 | x6 | x6 | x6 | x6 | x6 | z2 E .E3 | x6 | z2 D .[DF]3 | x6 | x6 |[M:7/8] x7 | %15
[M:3/4] x6 |] %16

